X:1
T:Title
%%score { ( 1 3 ) | ( 2 4 ) }
L:1/8
Q:1/4=100
M:4/4
K:C
V:1 treble nm="Grand Piano"
V:3 treble 
V:2 bass 
V:4 bass 
V:1
 C>E [EG]>[FA] [EG]2 E2 | F>A c>d c2 A2 | [EG]>[EG] [Ec]>[EG] [FA]>[EG] E>C | D6 z2 | %4
w: John~R.~Sweney * * * * *||||
 C>E [EG]>[FA] [EG]2 E2 | F>A c>d c2 A2 | G>G e>d c>B A>B | [Ec]6 z2 | d2 d2 d>G [Gc]>[Gd] | %9
w: |||||
 [Ge]4 [Ec]2 z2 | d2 D2 D>^F [CFA]>[DFB] | [CA]4 z4 | [E,C]>[G,CE][K:treble] [EG]>[FA] [EG]2 E2 | %13
w: ||||
 F>A c>d c2 A2 | G>G e>d c>B A>B | [Ec]6 z2 |] %16
w: |||
V:2
 [C,E,]>[C,G,C] [C,C]>[C,C] [C,C]2 [C,G,C]2 | [F,A,C]>[F,CF] [F,A,F]>[F,B,F] [F,A,F]2 [F,CF]2 | %2
 [C,C]>[C,C] [C,G,]>[C,C] [C,C]>[C,G,] [C,G,C]>[E,G,] | [G,B,]6 z2 | %4
 [C,E,]>[C,G,C] [C,C]>[C,C] [C,C]2 [C,G,C]2 | %5
 [F,A,C]>[K:treble][F,CF] [F,A,F]>[F,B,F] [F,A,F]2 [F,CF]2 | %6
 [G,CE]>[G,CE] [G,CG]>[G,FG] [G,EG]>[G,DF] [G,CF]>[G,F] | [C,G,]6 z2 | %8
 [G,B,G]2 [G,B,G]2 [G,B,G]>[K:bass][F,B,D] [E,C]>[D,B,] | [C,C]4 [C,G,]2 z2 | %10
 [G,B,G]2 [G,B,]2[K:bass] [D,^F,]>[D,A,D] D,>D, | z2 D2 G,,2 z2 | %12
 C,>C, [C,C]>[C,C] [C,C]2 [C,G,C]2 | [F,A,C]>[K:treble][F,CF] [F,A,F]>[F,B,F] [F,A,F]2 [F,CF]2 | %14
 [G,CE]>[G,CE] [G,CG]>[G,FG] [G,EG]>[G,DF] [G,CF]>[G,F] | [C,G,]6 z2 |] %16
V:3
 x8 | x8 | x8 | x8 | x8 | x8 | x8 | x8 | x8 | x8 | x8 | ^F2 z2 [B,DG]2 z2 | x2[K:treble] x6 | x8 | %14
 x8 | x8 |] %16
V:4
 x8 | x8 | x8 | x8 | x8 | x3/2[K:treble] x13/2 | x8 | x8 | x11/2[K:bass] x5/2 | x8 | %10
 x4[K:bass] x4 | D,4 z4 | x8 | x3/2[K:treble] x13/2 | x8 | x8 |] %16

